Bloom-Colors/16x16/places/folder-kde.svg

<svg width="16" height="16" version="1.1" xmlns="http://www.w3.org/2000/svg">
<defs>
<style id="current-color-scheme" type="text/css">.ColorScheme-Text { color:#444444; } .ColorScheme-Highlight { color:#4285f4; }</style>
</defs>
<path class="ColorScheme-Text" d="m4.2812 4.2012c-0.0246 3e-3 -0.0517 0.0087-0.0703 0.0273l-0.8535 0.8477c-0.0358 0.0357-0.04 0.0896-0.0137 0.1328l0.9083 1.4883c-0.2134 0.3464-0.379 0.7236-0.4903 1.125l-1.6738 0.3457c-0.0508 0.0104-0.0879 0.0593-0.0879 0.1113v1.1973c0 0.0507 0.0386 0.0937 0.0879 0.1054l1.623 0.3907c0.1022 0.4513 0.2748 0.8763 0.5039 1.2633l-0.9453 1.43c-0.0286 0.044-0.0233 0.102 0.0137 0.139l0.8535 0.847c0.036 0.036 0.0916 0.04 0.1348 0.014l1.4765-0.891c0.3647 0.218 0.7625 0.385 1.1856 0.491l0.3457 1.646c0.0108 0.051 0.0531 0.088 0.1055 0.088h1.207c0.0504 0 0.0935-0.033 0.1055-0.082l0.4101-1.658c0.4265-0.111 0.8236-0.289 1.1896-0.514l1.482 0.965c0.044 0.028 0.102 0.023 0.139-0.014l0.85-0.845c0.036-0.036 0.044-0.092 0.017-0.135l-0.58-0.947-0.189 0.058-0.075-0.027-1.212-1.559c-0.487 1.07-1.5537 1.757-2.729 1.758-1.6569 0-3-1.343-3-3 1e-3 -1.0293 0.5296-1.9863 1.4004-2.5352v-1.5898c-0.2232 0.0829-0.3699 0.1843-0.5742 0.3008l-1.4766-0.959c-0.0219-0.0144-0.044-0.018-0.0684-0.0156zm2.7188-2.8023v8.5128l1.9944-0.3116v-3.6l2.8056 3.9999 2.2-1-3-3.3999 3-3.6001-2.2-1-2.8056 4.2001 0.0056-4.2001z" fill="#808080"/>
</svg>

<svg xmlns="http://www.w3.org/2000/svg" width="16" height="16" version="1.1">
 <defs>
  <style id="current-color-scheme" type="text/css">
   .ColorScheme-Text { color:#666666; } .ColorScheme-Highlight { color:#4285f4; }
  </style>
 </defs>
 <path style="fill:currentColor" class="ColorScheme-Text" d="M 4.2812,4.2012 C 4.2566,4.2042 4.2295,4.2099 4.2109,4.2285 L 3.3574,5.0762 C 3.3216,5.1119 3.3174,5.1658 3.3437,5.209 L 4.252,6.6973 C 4.0386,7.0437 3.873,7.4209 3.7617,7.8223 L 2.0879,8.168 C 2.0371,8.1784 2,8.2273 2,8.2793 V 9.4766 C 2,9.5273 2.0386,9.5703 2.0879,9.582 L 3.7109,9.9727 C 3.8131,10.424 3.9857,10.849 4.2148,11.236 L 3.2695,12.666 C 3.2409,12.71 3.2462,12.768 3.2832,12.805 L 4.1367,13.652 C 4.1727,13.688 4.2283,13.692 4.2715,13.666 L 5.748,12.775 C 6.1127,12.993 6.5105,13.16 6.9336,13.266 L 7.2793,14.912 C 7.2901,14.963 7.3324,15 7.3848,15 H 8.5918 C 8.6422,15 8.6853,14.967 8.6973,14.918 L 9.1074,13.26 C 9.5339,13.149 9.931,12.971 10.297,12.746 L 11.779,13.711 C 11.823,13.739 11.881,13.734 11.918,13.697 L 12.768,12.852 C 12.804,12.816 12.812,12.76 12.785,12.717 L 12.205,11.77 12.016,11.828 11.941,11.801 10.729,10.242 C 10.242,11.312 9.1753,11.999 8,12 6.3431,12 5,10.657 5,9 5.001,7.9707 5.5296,7.0137 6.4004,6.4648 V 4.875 C 6.1772,4.9579 6.0305,5.0593 5.8262,5.1758 L 4.3496,4.2168 C 4.3277,4.2024 4.3056,4.1988 4.2812,4.2012 Z M 7,1.3989 V 9.9117 L 8.9944,9.6001 V 6.0001 L 11.8,10 14,9 11,5.6001 14,2 11.8,0.99998 8.9944,5.2001 9,1 Z"/>
</svg>
